X: 586
T: Dost Eline Giden Durnam
C: İbrahim Emici
O: Turkey
F: http://compmusic.upf.edu/node/140
N: gerdaniye--turku--musemmen_ii--dost_eline--malatya
N: makam= gerdaniye
N: form= turku
N: usul= musemmen_ii = 8/8
M: 8/8
L: 1/16
K: C _2/4B ^3/4f  
Q: 1/4=120
%%MIDI tuningsystem comma53
z2cB ccc2 cBcc cBB2  | z2dB cBcB BAcB BAA2  | 
w:   |   | 
A3A AAFG A3A AAA2  | z2cB ccc2 cBcc cBB2  | 
w:   |   | 
z2dB cBcB BAcB BAA2  | A3A AAFG A3A AAA2  | 
w:   |   | 
z2fg gfg2 fg2f f{g}ee2  | e2ee =fe3 eefe fd3  | 
w:  Dost_ e li ne  *  gi den  dur *  *  *  nam    |  *  Bek le  ke lâ mı  ke *  lâ *  mı    | 
z2gf gefe fg2f f{g}ee2  | e2ee =fe3 edfe fd3  | 
w:  Dost_ e li ne  *  *  gi den  dur *  *  *  nam    |  *  Bek le  ke lâ mı  ke *  lâ *  mı    | 
z2cd ecd2 dced dBc2  | c2cc cc3 cBdc cB3  | 
w:  Uğ rar_ ı san  *  dost  ya *  nı *  na    |  *  Ey le  se lâ mı  se *  lâ *  mı    | 
z2BB BBcA AAcB B{c}A3  | A3A AAFG A3A AGAB  | 
w:  Ey le  se lâ *  *  mı  se *  lâ *  *  mı   |  dost   *  *  *  SAZ  | 
c2Bc dBc2 cBdc cB3  | z2BB BB3 BAcB BA3  | 
w:  *  Uğ rar_ ı san  *  dost  ya *  nı *  na    |  Ey le  se lâ mı  se *  lâ *  mı   | 
A3A AAA2 A3A AAA2  | z2cB ccc2 cBcc cBB2  | 
w:  dost   *  *  *  *  SAZ  |   | 
z2dB cBcB BAcB BAA2  | A3A AAFG A3A AAA2  | 
w:   |   | 
z2cB ccc2 cBcc cBB2  | z2dB cBcB BAcB BAA2  | 
w:   |   | 
A3A AAFG A3A AAA2  | z2fg gfg2 fg2f f{g}ee2  | 
w:   |  Dost_ e li ne  *  gi den  dur *  *  *  nam    | 
e2ee =fe3 eefe fd3  | z2gf gefe fg2f f{g}ee2  | 
w:  *  Bek le  ke lâ mı  ke *  lâ *  mı    |  Dost_ e li ne  *  *  gi den  dur *  *  *  nam    | 
e2ee =fe3 edfe fd3  | z2cd ecd2 dced dBc2  | 
w:  *  Bek le  ke lâ mı  ke *  lâ *  mı    |  Uğ rar_ ı san  *  dost  ya *  nı *  na    | 
c2cc cc3 cBdc cB3  | z2BB BBcA AAcB B{c}A3  | 
w:  *  Ey le  se lâ mı  se *  lâ *  mı    |  Ey le  se lâ *  *  mı  se *  lâ *  *  mı   | 
A3A AAFG A3A AGAB  | c2Bc dBc2 cBdc cB3  | 
w:  dost   *  *  *  SAZ  |  *  Uğ rar_ ı san  *  dost  ya *  nı *  na    | 
z2BB BB3 BAcB BA3  | A3A AAA2 A3A AAA2  | 
w:  Ey le  se lâ mı  se *  lâ *  mı   |  dost   *  *  *  *  SAZ  | 
|


